; generated by PrusaSlicer 2.9.3 on 2025-11-18 at 17:28:13 UTC


;
;

;
;

;
;

;
;
; 

; external perimeters extrusion width = 0.45mm
; perimeters extrusion width = 0.45mm
; infill extrusion width = 0.45mm
; solid infill extrusion width = 0.45mm
; top infill extrusion width = 0.40mm
; first layer extrusion width = 0.50mm

M73 P0 R30
M73 Q0 S32
M201 X4000 Y4000 Z400 E5000 ; sets maximum accelerations, mm/sec^2
M203 X400 Y400 Z12 E80 ; sets maximum feedrates, mm / sec
M204 P4000 R1250 T4000 ; sets acceleration (P, T) and retract acceleration (R), mm/sec^2
M205 X8.00 Y8.00 Z2.00 E10.00 ; sets the jerk limits, mm/sec
M205 S0 T0 ; sets the minimum extruding and travel feed rate, mm/sec

M486 S0
M486 Aspacer_sample_test_5mm_2025_11_listopad_16.stl
M486 S-1

;TYPE:Custom
M862.3 P "MINI" ; printer model check
M862.1 P0.4 A0 F0 ; nozzle check
M862.5 P2 ; g-code level check
M862.6 P"Input shaper" ; FW feature check
M115 U6.2.6+8948
G90 ; use absolute coordinates
M83 ; extruder relative mode
M104 S170 ; set extruder temp for bed leveling
M140 S60 ; set bed temp
M109 R170 ; wait for bed leveling temp
M190 S60 ; wait for bed temp
M569 S1 X Y ; set stealthchop for X Y
M204 T1250 ; set travel acceleration
G28 ; home all without mesh bed level
G29 ; mesh bed leveling 
M104 S230 ; set extruder temp
G92 E0

G1 X0 Y-2 Z3 F2400

M109 S230 ; wait for extruder temp

; intro line
G1 X10 Z0.2 F1000
G1 X70 E8 F900
G1 X140 E10 F700
G92 E0

M569 S0 X Y ; set spreadcycle for X Y
M204 T4000 ; restore travel acceleration
M572 W0.06 ; set smooth time
M221 S95 ; set flow
G21 ; set units to millimeters
G90 ; use absolute coordinates
M83 ; use relative distances for extrusion
M572 S0.27
M107
;LAYER_CHANGE
;Z:0.2
;HEIGHT:0.2
G1 E-2.5 F4200
G1 Z.4 F720
M486 S0
G1 X90.599 Y100.771 F24000
G1 Z.2 F720
G1 E2.5 F2400
M204 P500
;TYPE:External perimeter
;WIDTH:0.504499
G1 F1800
G1 X89.595 Y100.771 E.03853
G1 X88.619 Y100.655 E.03772
;WIDTH:0.499999
G1 X87.636 Y100.412 E.03848
G1 X86.688 Y100.074 E.03825
G1 X85.778 Y99.645 E.03824
G1 X84.915 Y99.129 E.03822
G1 X84.106 Y98.53 E.03826
G1 X83.36 Y97.856 E.03821
G1 X82.684 Y97.111 E.03823
G1 X82.084 Y96.304 E.03822
G1 X81.566 Y95.442 E.03822
G1 X81.135 Y94.533 E.03823
G1 X80.795 Y93.586 E.03824
G1 X80.551 Y92.61 E.03824
;WIDTH:0.503031
G1 X80.429 Y91.578 E.03976
;WIDTH:0.504502
G1 X80.429 Y89.595 E.07611
G1 X80.545 Y88.619 E.03772
;WIDTH:0.499999
G1 X80.788 Y87.636 E.03848
G1 X81.126 Y86.688 E.03825
G1 X81.555 Y85.778 E.03824
G1 X82.071 Y84.915 E.03822
G1 X82.67 Y84.106 E.03826
G1 X83.344 Y83.36 E.03821
G1 X84.089 Y82.684 E.03823
G1 X84.896 Y82.084 E.03822
G1 X85.758 Y81.566 E.03822
G1 X86.667 Y81.135 E.03823
G1 X87.614 Y80.795 E.03824
G1 X88.59 Y80.551 E.03824
;WIDTH:0.504499
G1 X89.595 Y80.429 E.03886
G1 X91.598 Y80.429 E.07688
;WIDTH:0.503136
G1 X92.581 Y80.545 E.03788
;WIDTH:0.499999
G1 X93.564 Y80.788 E.03848
G1 X94.512 Y81.126 E.03825
G1 X95.422 Y81.555 E.03824
G1 X96.285 Y82.071 E.03822
G1 X97.094 Y82.67 E.03826
G1 X97.84 Y83.344 E.03821
G1 X98.516 Y84.089 E.03823
G1 X99.116 Y84.896 E.03822
G1 X99.634 Y85.758 E.03822
G1 X100.065 Y86.667 E.03823
G1 X100.405 Y87.614 E.03824
G1 X100.649 Y88.59 E.03824
;WIDTH:0.5045
G1 X100.771 Y89.595 E.03886
G1 X100.771 Y91.598 E.07688
;WIDTH:0.503137
G1 X100.655 Y92.581 E.03788
;WIDTH:0.499999
G1 X100.412 Y93.564 E.03848
G1 X100.074 Y94.512 E.03825
G1 X99.645 Y95.422 E.03824
G1 X99.129 Y96.285 E.03822
G1 X98.53 Y97.094 E.03826
G1 X97.856 Y97.84 E.03821
G1 X97.111 Y98.516 E.03823
G1 X96.304 Y99.116 E.03822
G1 X95.442 Y99.634 E.03822
G1 X94.533 Y100.065 E.03823
G1 X93.586 Y100.405 E.03824
G1 X92.61 Y100.649 E.03824
;WIDTH:0.503029
G1 X91.578 Y100.771 E.03976
;WIDTH:0.504499
G1 X90.659 Y100.771 E.03527
M204 P2000
G1 X90.259 Y100.771 F24000
G1 E-2.5 F4200
M204 T4000
G1 Z.4 F720
G1 X100.771 Y111.401 F24000
G1 Z.2 F720
G1 E2.5 F2400
M204 P500
;WIDTH:0.504501
G1 F1800
G1 X100.771 Y112.398 E.03827
;WIDTH:0.503137
G1 X100.655 Y113.381 E.03788
;WIDTH:0.499999
G1 X100.412 Y114.364 E.03848
G1 X100.074 Y115.312 E.03825
G1 X99.645 Y116.222 E.03824
G1 X99.129 Y117.085 E.03822
G1 X98.53 Y117.894 E.03826
G1 X97.856 Y118.64 E.03821
G1 X97.111 Y119.316 E.03823
G1 X96.304 Y119.916 E.03822
G1 X95.442 Y120.434 E.03822
G1 X94.533 Y120.865 E.03823
G1 X93.586 Y121.205 E.03824
G1 X92.61 Y121.449 E.03824
;WIDTH:0.503029
G1 X91.578 Y121.571 E.03976
;WIDTH:0.5045
G1 X89.595 Y121.571 E.07611
G1 X88.619 Y121.455 E.03772
;WIDTH:0.499999
G1 X87.636 Y121.212 E.03848
G1 X86.688 Y120.874 E.03825
G1 X85.778 Y120.445 E.03824
G1 X84.915 Y119.929 E.03822
G1 X84.106 Y119.33 E.03826
G1 X83.36 Y118.656 E.03821
G1 X82.684 Y117.911 E.03823
G1 X82.084 Y117.104 E.03822
G1 X81.566 Y116.242 E.03822
G1 X81.135 Y115.333 E.03823
G1 X80.795 Y114.386 E.03824
G1 X80.551 Y113.41 E.03824
;WIDTH:0.503031
G1 X80.429 Y112.378 E.03976
;WIDTH:0.504501
G1 X80.429 Y110.395 E.07611
G1 X80.545 Y109.419 E.03772
;WIDTH:0.499999
G1 X80.788 Y108.436 E.03848
G1 X81.126 Y107.488 E.03825
G1 X81.555 Y106.578 E.03824
G1 X82.071 Y105.715 E.03822
G1 X82.67 Y104.906 E.03826
G1 X83.344 Y104.16 E.03821
G1 X84.089 Y103.484 E.03823
G1 X84.896 Y102.884 E.03822
G1 X85.758 Y102.366 E.03822
G1 X86.667 Y101.935 E.03823
G1 X87.614 Y101.595 E.03824
G1 X88.59 Y101.351 E.03824
;WIDTH:0.504499
G1 X89.595 Y101.229 E.03886
G1 X91.598 Y101.229 E.07688
;WIDTH:0.503135
G1 X92.581 Y101.345 E.03788
;WIDTH:0.499999
G1 X93.564 Y101.588 E.03848
G1 X94.512 Y101.926 E.03825
G1 X95.422 Y102.355 E.03824
G1 X96.285 Y102.871 E.03822
G1 X97.094 Y103.47 E.03826
G1 X97.84 Y104.144 E.03821
G1 X98.516 Y104.889 E.03823
G1 X99.116 Y105.696 E.03822
G1 X99.634 Y106.558 E.03822
G1 X100.065 Y107.467 E.03823
G1 X100.405 Y108.414 E.03824
G1 X100.649 Y109.39 E.03824
;WIDTH:0.504501
G1 X100.771 Y110.395 E.03886
G1 X100.771 Y111.341 E.03631
M204 P2000
G1 X100.771 Y111.741 F24000
G1 E-2.5 F4200
G1 Z.4 F720
G1 X79.614 Y108.447 F24000
G1 Z.2 F720
G1 E2.5 F2400
M204 P500
;WIDTH:0.499999
G1 F1800
G1 X79.849 Y109.39 E.03694
;WIDTH:0.504501
G1 X79.971 Y110.395 E.03886
G1 X79.971 Y112.398 E.07688
;WIDTH:0.503137
G1 X79.855 Y113.381 E.03788
;WIDTH:0.499999
G1 X79.612 Y114.364 E.03848
G1 X79.274 Y115.312 E.03825
G1 X78.845 Y116.222 E.03824
G1 X78.329 Y117.085 E.03822
G1 X77.73 Y117.894 E.03826
G1 X77.056 Y118.64 E.03821
G1 X76.311 Y119.316 E.03823
G1 X75.504 Y119.916 E.03822
G1 X74.642 Y120.434 E.03822
G1 X73.733 Y120.865 E.03823
G1 X72.786 Y121.205 E.03824
G1 X71.81 Y121.449 E.03824
;WIDTH:0.503029
G1 X70.778 Y121.571 E.03976
;WIDTH:0.5045
G1 X68.795 Y121.571 E.07611
;WIDTH:0.542756
G1 X68.467 Y121.552 E.01366
;WIDTH:0.581011
G1 X68.14 Y121.533 E.01466
;WIDTH:0.619266
G3 X67.487 Y121.413 I-.031 J-1.677 E.03203
;WIDTH:0.579511
G1 X67.161 Y121.313 E.01521
;WIDTH:0.539755
G1 X66.836 Y121.212 E.01406
;WIDTH:0.499999
G1 X65.888 Y120.874 E.03825
G1 X64.978 Y120.445 E.03824
G1 X64.115 Y119.929 E.03822
G1 X63.306 Y119.33 E.03826
G1 X62.56 Y118.656 E.03821
G1 X61.884 Y117.911 E.03823
G1 X61.284 Y117.104 E.03822
G1 X60.766 Y116.242 E.03822
G1 X60.335 Y115.333 E.03823
G1 X59.995 Y114.386 E.03824
G1 X59.749 Y113.411 E.03822
G1 X59.6 Y112.416 E.03824
G1 X59.55 Y111.411 E.03824
G1 X59.598 Y110.406 E.03824
G1 X59.745 Y109.411 E.03823
G1 X59.988 Y108.435 E.03823
G1 X60.326 Y107.488 E.03822
G1 X60.755 Y106.578 E.03824
G1 X61.271 Y105.715 E.03822
G1 X61.87 Y104.906 E.03826
G1 X62.544 Y104.16 E.03821
G1 X63.289 Y103.484 E.03823
G1 X64.096 Y102.884 E.03822
G1 X64.958 Y102.366 E.03822
G1 X65.867 Y101.935 E.03823
G1 X66.814 Y101.595 E.03824
G1 X67.79 Y101.351 E.03824
;WIDTH:0.504499
G1 X68.795 Y101.229 E.03886
;WIDTH:0.5045
G1 X70.798 Y101.229 E.07688
;WIDTH:0.503135
G1 X71.781 Y101.345 E.03788
;WIDTH:0.499999
G1 X72.764 Y101.588 E.03848
G1 X73.712 Y101.926 E.03825
G1 X74.622 Y102.355 E.03824
G1 X75.485 Y102.871 E.03822
G1 X76.294 Y103.47 E.03826
M73 P1 R30
G1 X77.04 Y104.144 E.03821
G1 X77.716 Y104.889 E.03823
G1 X78.316 Y105.696 E.03822
G1 X78.834 Y106.558 E.03822
G1 X79.265 Y107.467 E.03823
G1 X79.597 Y108.389 E.03724
M204 P2000
G1 X79.696 Y108.777 F24000
G1 E-2.5 F4200
G1 Z.4 F720
G1 X68.833 Y80.429 F24000
G1 Z.2 F720
G1 E2.5 F2400
M73 Q1 S32
M204 P500
;WIDTH:0.504499
G1 F1800
G1 X70.798 Y80.429 E.07542
;WIDTH:0.503136
G1 X70.805 Y80.43 E.00027
;WIDTH:0.50303
G1 X71.781 Y80.545 E.0376
;WIDTH:0.499999
G1 X72.764 Y80.788 E.03848
G1 X73.712 Y81.126 E.03825
G1 X74.622 Y81.555 E.03824
G1 X75.485 Y82.071 E.03822
G1 X76.294 Y82.67 E.03826
G1 X77.04 Y83.344 E.03821
G1 X77.716 Y84.089 E.03823
G1 X78.316 Y84.896 E.03822
G1 X78.834 Y85.758 E.03822
G1 X79.265 Y86.667 E.03823
G1 X79.605 Y87.614 E.03824
G1 X79.849 Y88.59 E.03824
;WIDTH:0.504502
G1 X79.971 Y89.595 E.03886
G1 X79.971 Y91.598 E.07688
;WIDTH:0.503137
G1 X79.855 Y92.581 E.03788
;WIDTH:0.499999
G1 X79.612 Y93.564 E.03848
G1 X79.274 Y94.512 E.03825
G1 X78.845 Y95.422 E.03824
G1 X78.329 Y96.285 E.03822
G1 X77.73 Y97.094 E.03826
G1 X77.056 Y97.84 E.03821
G1 X76.311 Y98.516 E.03823
G1 X75.504 Y99.116 E.03822
G1 X74.642 Y99.634 E.03822
G1 X73.733 Y100.065 E.03823
G1 X72.786 Y100.405 E.03824
G1 X71.81 Y100.649 E.03824
;WIDTH:0.503029
G1 X70.778 Y100.771 E.03976
;WIDTH:0.504499
G1 X68.795 Y100.771 E.07611
G1 X67.819 Y100.655 E.03772
;WIDTH:0.499999
G1 X66.836 Y100.412 E.03848
G1 X65.888 Y100.074 E.03825
G1 X64.978 Y99.645 E.03824
G1 X64.115 Y99.129 E.03822
G1 X63.306 Y98.53 E.03826
G1 X62.56 Y97.856 E.03821
G1 X61.884 Y97.111 E.03823
G1 X61.284 Y96.304 E.03822
G1 X60.766 Y95.442 E.03822
G1 X60.335 Y94.533 E.03823
G1 X59.995 Y93.586 E.03824
G1 X59.749 Y92.611 E.03822
G1 X59.6 Y91.616 E.03824
G1 X59.55 Y90.611 E.03824
G1 X59.598 Y89.606 E.03824
G1 X59.745 Y88.611 E.03823
G1 X59.988 Y87.635 E.03823
G1 X60.326 Y86.688 E.03822
G1 X60.755 Y85.778 E.03824
G1 X61.271 Y84.915 E.03822
G1 X61.87 Y84.106 E.03826
G1 X62.544 Y83.36 E.03821
G1 X63.289 Y82.684 E.03823
G1 X64.096 Y82.084 E.03822
G1 X64.958 Y81.566 E.03822
G1 X65.867 Y81.135 E.03823
G1 X66.814 Y80.795 E.03824
G1 X67.79 Y80.551 E.03824
;WIDTH:0.504499
G1 X68.773 Y80.432 E.038
M204 P2000
G1 X69.173 Y80.43 F24000
G1 E-2.5 F4200
G1 Z.4 F720
G1 X68.833 Y59.629 F24000
G1 Z.2 F720
G1 E2.5 F2400
M204 P500
;WIDTH:0.5045
G1 F1800
G1 X70.798 Y59.629 E.07542
;WIDTH:0.503135
G1 X71.781 Y59.745 E.03788
;WIDTH:0.499999
G1 X72.764 Y59.988 E.03848
G1 X73.712 Y60.326 E.03825
G1 X74.622 Y60.755 E.03824
G1 X75.485 Y61.271 E.03822
G1 X76.294 Y61.87 E.03826
G1 X77.04 Y62.544 E.03821
G1 X77.716 Y63.289 E.03823
G1 X78.316 Y64.096 E.03822
G1 X78.834 Y64.958 E.03822
G1 X79.265 Y65.867 E.03823
G1 X79.605 Y66.814 E.03824
G1 X79.849 Y67.79 E.03824
;WIDTH:0.504501
G1 X79.971 Y68.795 E.03886
G1 X79.971 Y70.798 E.07688
;WIDTH:0.503137
G1 X79.855 Y71.781 E.03788
;WIDTH:0.499999
G1 X79.612 Y72.764 E.03848
G1 X79.274 Y73.712 E.03825
G1 X78.845 Y74.622 E.03824
G1 X78.329 Y75.485 E.03822
G1 X77.73 Y76.294 E.03826
G1 X77.056 Y77.04 E.03821
G1 X76.311 Y77.716 E.03823
G1 X75.504 Y78.316 E.03822
G1 X74.642 Y78.834 E.03822
G1 X73.733 Y79.265 E.03823
G1 X72.786 Y79.605 E.03824
G1 X71.81 Y79.849 E.03824
;WIDTH:0.50303
G1 X70.778 Y79.971 E.03976
;WIDTH:0.504499
G1 X68.795 Y79.971 E.07611
G1 X67.819 Y79.855 E.03772
;WIDTH:0.499999
G1 X66.836 Y79.612 E.03848
G1 X65.888 Y79.274 E.03825
G1 X64.978 Y78.845 E.03824
G1 X64.115 Y78.329 E.03822
G1 X63.306 Y77.73 E.03826
G1 X62.56 Y77.056 E.03821
G1 X61.884 Y76.311 E.03823
G1 X61.284 Y75.504 E.03822
G1 X60.766 Y74.642 E.03822
G1 X60.335 Y73.733 E.03823
G1 X59.995 Y72.786 E.03824
G1 X59.749 Y71.811 E.03822
G1 X59.6 Y70.816 E.03824
G1 X59.55 Y69.811 E.03824
G1 X59.598 Y68.806 E.03824
G1 X59.745 Y67.811 E.03823
G1 X59.988 Y66.835 E.03823
G1 X60.326 Y65.888 E.03822
G1 X60.755 Y64.978 E.03824
G1 X61.271 Y64.115 E.03822
G1 X61.87 Y63.306 E.03826
G1 X62.544 Y62.56 E.03821
G1 X63.289 Y61.884 E.03823
G1 X64.115 Y61.271 E.03909
G1 X64.958 Y60.766 E.03735
G1 X65.867 Y60.335 E.03823
G1 X66.814 Y59.995 E.03824
;WIDTH:0.548383
G1 X67.296 Y59.849 E.02117
;WIDTH:0.596767
G1 X67.779 Y59.704 E.02322
G1 X68.287 Y59.666 E.02346
;WIDTH:0.550634
G1 X68.773 Y59.631 E.02057
M204 P2000
G1 X69.173 Y59.629 F24000
M204 T250
G1 X68.787 Y59.17
M204 T4000
M204 P500
;WIDTH:0.542756
G1 F1800
G1 X68.467 Y59.152 E.01332
;WIDTH:0.581012
G1 X68.14 Y59.133 E.01466
;WIDTH:0.619268
G3 X67.487 Y59.013 I-.031 J-1.677 E.03203
;WIDTH:0.579512
G1 X67.161 Y58.913 E.01521
;WIDTH:0.539756
G1 X66.836 Y58.812 E.01406
;WIDTH:0.499999
G1 X65.888 Y58.474 E.03825
G1 X64.978 Y58.045 E.03824
G1 X64.115 Y57.529 E.03822
G1 X63.306 Y56.93 E.03826
G1 X62.56 Y56.256 E.03821
G1 X61.884 Y55.511 E.03823
G1 X61.284 Y54.704 E.03822
G1 X60.766 Y53.842 E.03822
G1 X60.335 Y52.933 E.03823
G1 X59.995 Y51.986 E.03824
G1 X59.749 Y51.011 E.03822
G1 X59.6 Y50.016 E.03824
G1 X59.55 Y49.011 E.03824
G1 X59.598 Y48.006 E.03824
G1 X59.745 Y47.011 E.03823
G1 X59.988 Y46.035 E.03823
G1 X60.326 Y45.088 E.03822
G1 X60.755 Y44.178 E.03824
G1 X61.271 Y43.315 E.03822
G1 X61.87 Y42.506 E.03826
G3 X63.289 Y41.084 I10.732 J9.29 E.07641
G1 X64.096 Y40.484 E.03822
G1 X64.958 Y39.966 E.03822
G1 X65.867 Y39.535 E.03823
G1 X66.814 Y39.195 E.03824
G1 X67.789 Y38.949 E.03822
G1 X68.784 Y38.8 E.03824
G1 X69.715 Y38.754 E.03543
G1 X70.792 Y38.798 E.04097
G1 X71.789 Y38.945 E.0383
G1 X72.765 Y39.188 E.03823
G1 X73.712 Y39.526 E.03822
G1 X74.622 Y39.955 E.03824
G1 X75.485 Y40.471 E.03822
G1 X76.294 Y41.07 E.03826
G1 X77.04 Y41.744 E.03821
G1 X77.716 Y42.489 E.03823
G1 X78.316 Y43.296 E.03822
G1 X78.834 Y44.158 E.03822
G1 X79.265 Y45.067 E.03823
G1 X79.605 Y46.014 E.03824
G1 X79.849 Y46.99 E.03824
;WIDTH:0.504501
G1 X79.971 Y47.995 E.03886
G1 X79.971 Y49.998 E.07688
;WIDTH:0.503137
G1 X79.855 Y50.981 E.03788
;WIDTH:0.499999
G1 X79.612 Y51.964 E.03848
G1 X79.274 Y52.912 E.03825
G1 X78.845 Y53.822 E.03824
G1 X78.329 Y54.685 E.03822
G1 X77.73 Y55.494 E.03826
G1 X77.056 Y56.24 E.03821
G1 X76.311 Y56.916 E.03823
G1 X75.504 Y57.516 E.03822
G1 X74.642 Y58.034 E.03822
G1 X73.712 Y58.474 E.0391
G1 X72.786 Y58.805 E.03737
G1 X71.81 Y59.049 E.03824
;WIDTH:0.503029
G1 X70.778 Y59.171 E.03976
;WIDTH:0.5045
G1 X68.847 Y59.171 E.07411
M204 P2000
G1 X68.447 Y59.15 F24000
G1 E-2.5 F4200
G1 Z.4 F720
G1 X100.771 Y48.033 F24000
G1 Z.2 F720
G1 E2.5 F2400
M204 P500
;WIDTH:0.504501
G1 F1800
G1 X100.771 Y49.998 E.07542
;WIDTH:0.503137
G1 X100.655 Y50.981 E.03788
;WIDTH:0.499999
G1 X100.412 Y51.964 E.03848
M73 Q1 S31
G1 X100.074 Y52.912 E.03825
G1 X99.645 Y53.822 E.03824
G1 X99.129 Y54.685 E.03822
G1 X98.53 Y55.494 E.03826
G1 X97.856 Y56.24 E.03821
G1 X97.111 Y56.916 E.03823
G1 X96.304 Y57.516 E.03822
G1 X95.442 Y58.034 E.03822
G1 X94.533 Y58.465 E.03823
G1 X93.586 Y58.805 E.03824
G1 X92.61 Y59.049 E.03824
;WIDTH:0.503029
G1 X91.578 Y59.171 E.03976
;WIDTH:0.5045
G1 X89.595 Y59.171 E.07611
G1 X88.619 Y59.055 E.03772
;WIDTH:0.499999
G1 X87.636 Y58.812 E.03848
G1 X86.688 Y58.474 E.03825
G1 X85.778 Y58.045 E.03824
G1 X84.915 Y57.529 E.03822
G1 X84.106 Y56.93 E.03826
G1 X83.36 Y56.256 E.03821
G1 X82.684 Y55.511 E.03823
G1 X82.084 Y54.704 E.03822
G1 X81.566 Y53.842 E.03822
G1 X81.135 Y52.933 E.03823
G1 X80.795 Y51.986 E.03824
G1 X80.551 Y51.01 E.03824
;WIDTH:0.503031
G1 X80.429 Y49.978 E.03976
;WIDTH:0.504501
G1 X80.429 Y47.995 E.07611
G1 X80.545 Y47.019 E.03772
;WIDTH:0.499999
G1 X80.788 Y46.036 E.03848
G1 X81.126 Y45.088 E.03825
G1 X81.555 Y44.178 E.03824
G1 X82.071 Y43.315 E.03822
G1 X82.67 Y42.506 E.03826
G1 X83.344 Y41.76 E.03821
G1 X84.089 Y41.084 E.03823
G1 X84.896 Y40.484 E.03822
G1 X85.758 Y39.966 E.03822
G1 X86.667 Y39.535 E.03823
G1 X87.614 Y39.195 E.03824
G1 X88.589 Y38.949 E.03822
G1 X89.584 Y38.8 E.03824
G1 X90.515 Y38.754 E.03543
G1 X91.592 Y38.798 E.04097
G1 X92.589 Y38.945 E.0383
G1 X93.565 Y39.188 E.03823
G1 X94.512 Y39.526 E.03822
G1 X95.422 Y39.955 E.03824
G1 X96.285 Y40.471 E.03822
G1 X97.094 Y41.07 E.03826
G1 X97.84 Y41.744 E.03821
G1 X98.516 Y42.489 E.03823
G1 X99.116 Y43.296 E.03822
G1 X99.634 Y44.158 E.03822
G1 X100.065 Y45.067 E.03823
G1 X100.405 Y46.014 E.03824
G1 X100.649 Y46.99 E.03824
;WIDTH:0.504501
G1 X100.768 Y47.973 E.038
M204 P2000
G1 X100.77 Y48.373 F24000
G1 E-2.5 F4200
G1 Z.4 F720
